X:1
T:Bethlehem Land
T:Bethlehem Land
T:Thomas Tertius Noble (1867-1953)
T:Charles William Stubbs (1845-1912)
T:Public Domain Courtesy of the Cyber Hymnal™
C:Thomas Tertius Noble (1867-1953)
Z:Public Domain
Z:Courtesy of the Cyber Hymnal™
%%score ( 1 2 ) ( 3 4 )
L:1/8
Q:1/4=90
M:3/8
K:C
V:1 treble 
V:2 treble 
V:3 bass 
V:4 bass 
V:1
 [CG]2 [FG] | [EG]2 [Dc] | [CG]2 [FG] | [EG]3 | [Gc]2 [CE] | [CF]2 [DG] | [FA]2 [FB] | [EA]3 | %8
w: 1.~Fair the|night in|Beth- l’hem|land,|Sweet the|songs of|an- gel|band.|
w: 2.~Rus- tic|shep- herds|in a|row|Knelt be-|side the|cra- dle|low.|
w: 3.~Three men|rode from|out the|wild,|Came to|greet the|Christ- mas|Child.|
w: 4.~Spice and|myrrh and|gold of|kings,|Offer- ings|rare of|far- brought|things.|
w: 5.~Now- ell,|Now- ell,|sing we|then,|Je- su|saves the|souls of|men.|
 [Ad]3 | [FA]2 [DF] | E3 | [A,D]2 z | [Fd]2 [FB] | [Gc]2 [EA] | [Fd]2 [FB] | c3 | [Ee]2 [Ed] | %17
w: Fall,|snow, so|light-|ly!|Je- su,|born of|Mar- y|maid,|In an|
w: Fall,|snow, so|light-|ly!|Told of|all the|ma- gic|song|They had|
w: Fall,|snow, so|light-|ly!|Cas- par,|Mel- chior,|Bal- tha-|zar,|Ma- gian|
w: Fall,|snow, so|light-|ly!|Gold for|joy and|myrrh for|pain,|Fran- kin-|
w: Fall,|snow, so|light-|ly!|So joy|comes from|God a-|bove|To all|
 [Ec]2 [EA] | [Dd]2 [Dc] | B3 | [Ec]3 | [FA]2 [CF] | D3 | [G,C]2 z |] %24
w: ox- en|stall was|laid,|O|star, shine|bright-|ly!|
w: heard their|sheep a-|mong,|O|star, shine|bright-|ly!|
w: pil- grims|from a-|far.|O|star, shine|bright-|ly!|
w: cense for|al- tar’s|fane|O|star, shine|bright-|ly!|
w: those who|Christ- mas|love.|O|star, shine|bright-|ly!|
V:2
 x3 | x3 | x3 | x3 | x3 | x3 | x3 | x3 | x3 | x3 | (^C>B,C) | x3 | x3 | x3 | x3 | (G>FE) | x3 | %17
 x3 | x3 | (D>AG) | x3 | x3 | (B,>A,B,) | x3 |] %24
V:3
 [C,E,]2 [C,A,] | [C,G,]2 [C,F,] | [C,E,]2 [C,A,] | [C,G,]3 | [CE]2 [B,C] | [A,C]2 [G,B,] | %6
 C2 [D,D] | [A,C]3 | [D,F]3 | [A,,C,]2 [E,,A,,] | F,,3 | [D,F,]2 z | [G,B,]2 [G,D] | [G,E]2 [G,C] | %14
 [G,B,]2 [G,D] | (E>DC) | [^G,B,]2 [G,B,] | [A,C]2 [A,C] | [^F,A,]2 [F,A,] | (G,>CB,) | %20
 [C,,G,_B,]3 | [F,,F,C]2 [A,,A,] | [G,,F,]3 | [C,E,]2 z |] %24
V:4
 x3 | x3 | x3 | x3 | x3 | x3 | (F,>E,) x | x3 | x3 | x3 | (D,,>C,,D,,) | x3 | G,,3- | G,,3- | %14
 G,,3- | [G,,G,]3 | E,,3 | A,,3 | E,,3 | A,,3 | x3 | x3 | x3 | x3 |] %24

